svgs/solid/pen-line.svg

<svg xmlns="http://www.w3.org/2000/svg" viewBox="0 0 576 512"><!--! Font Awesome Pro 6.1.1 by @fontawesome - https://fontawesome.com License - https://fontawesome.com/license (Commercial License) Copyright 2022 Fonticons, Inc. --><path d="M492.7 58.75C517.7 83.74 517.7 124.3 492.7 149.3L444.3 197.7L314.3 67.72L362.7 19.32C387.7-5.678 428.3-5.678 453.3 19.32L492.7 58.75zM58.57 323.5L291.7 90.34L421.7 220.3L188.5 453.4C178.1 463.8 165.2 471.5 151.1 475.6L30.77 511C22.35 513.5 13.24 511.2 7.03 504.1C.8198 498.8-1.502 489.7 .976 481.2L36.37 360.9C40.53 346.8 48.16 333.9 58.57 323.5L58.57 323.5zM552 464C565.3 464 576 474.7 576 488C576 501.3 565.3 512 552 512H248C234.7 512 224 501.3 224 488C224 474.7 234.7 464 248 464H552z"/></svg>

<svg xmlns="http://www.w3.org/2000/svg" viewBox="0 0 576 512"><!--! Font Awesome Pro 6.4.2 by @fontawesome - https://fontawesome.com License - https://fontawesome.com/license (Commercial License) Copyright 2023 Fonticons, Inc. --><path d="M453.3 19.3l39.4 39.4c25 25 25 65.5 0 90.5l-48.4 48.4L314.3 67.7l48.4-48.4c25-25 65.5-25 90.5 0zM58.6 323.5L291.7 90.3 421.7 220.3 188.5 453.4c-10.4 10.4-23.3 18-37.4 22.2L30.8 511c-8.4 2.5-17.5 .2-23.7-6.1S-1.5 489.7 1 481.2L36.4 360.9c4.2-14.1 11.8-27 22.2-37.4zM248 464H552c13.3 0 24 10.7 24 24s-10.7 24-24 24H248c-13.3 0-24-10.7-24-24s10.7-24 24-24z"/></svg>
